src/pictures/icons/profileAddIcon.svg

<svg width="24" height="24" viewBox="0 0 24 24" fill="none" xmlns="http://www.w3.org/2000/svg">
<path d="M18.5 19.5H14.5" stroke="#DBBE8F" stroke-width="1.5" stroke-linecap="round" stroke-linejoin="round"/>
<path d="M16.5 21.5V17.5" stroke="#DBBE8F" stroke-width="1.5" stroke-linecap="round" stroke-linejoin="round"/>
<path d="M12.1601 10.87C12.0601 10.86 11.9401 10.86 11.8301 10.87C9.4501 10.79 7.5601 8.84 7.5601 6.44C7.5501 3.99 9.5401 2 11.9901 2C14.4401 2 16.4301 3.99 16.4301 6.44C16.4301 8.84 14.5301 10.79 12.1601 10.87Z" stroke="#DBBE8F" stroke-width="1.5" stroke-linecap="round" stroke-linejoin="round"/>
<path d="M11.99 21.8097C10.17 21.8097 8.36004 21.3497 6.98004 20.4297C4.56004 18.8097 4.56004 16.1697 6.98004 14.5597C9.73004 12.7197 14.24 12.7197 16.99 14.5597" stroke="#DBBE8F" stroke-width="1.5" stroke-linecap="round" stroke-linejoin="round"/>
</svg>

<svg width="24" height="24" fill="none" xmlns="http://www.w3.org/2000/svg"><path d="M18.5 19.5h-4M16.5 21.5v-4M12.16 10.87c-.1-.01-.22-.01-.33 0a4.42 4.42 0 0 1-4.27-4.43A4.428 4.428 0 0 1 11.99 2c2.45 0 4.44 1.99 4.44 4.44 0 2.4-1.9 4.35-4.27 4.43zM11.99 21.81c-1.82 0-3.63-.46-5.01-1.38-2.42-1.62-2.42-4.26 0-5.87 2.75-1.84 7.26-1.84 10.01 0" stroke="#DBBE8F" stroke-width="1.5" stroke-linecap="round" stroke-linejoin="round"/></svg>
